X:177
T:Jack's Maggot
M: 2/4
L: 1/16
Q:1/4=140
%beats in anacrusis = 4
K:D % 2 sharps
% Jack's Maggot
A2 d2| D2 F2 A2 BA| Bc d2 e2 fg|
a2 Bc d2 e2-| ef e2 c2 d2| D2 F2 A2 Bc| d2 c2 ag f2|
d2 e2 c2 d2-| d2 d2 A2 d2| D2 F2 A2 BA| Bc d2 e2 fg|
a2 Bc d2 e2-| ef e2 c2 d2| D2 F2 A2 Bc| d2 c2 ag f2|
d2 e2 c2 d2-| d2 d2 fg a2| d4 a2 f2| d4 ef gf|
ed c2 d2 e2-| e4 fg a2| f2 d2 f2 A2| d2 F2 A2 d2|
gf2<e2d d2-| d4 fg a2| d4 a2 f2| d4 ef gf|
ed c2 d2 e2-| e4 fg a2| f2 d2 f2 A2| d2 F2 A2 d2|
gf2<e2d d2-|d4

% <A name="D1X178"></A>
